mykey.svg

<svg width="601" height="186" viewBox="0 0 601 186" fill="none" xmlns="http://www.w3.org/2000/svg">
<path d="M379.3 57.2L354.7 81.8L330.1 57.2C328.3 55.4 325.4 55.4 323.5 57.2C321.7 59 321.7 61.9 323.5 63.8L350 90.2999V125.5C350 128.1 352.1 130.1 354.6 130.1C357.2 130.1 359.2 128 359.2 125.5V90.2999L385.7 63.8C387.5 62 387.5 59.1 385.7 57.2C384.1 55.4 381.1 55.4 379.3 57.2Z" fill="white"/>
<path d="M305.1 57.2L280.5 81.8L256 57.2C254.2 55.4 251.3 55.4 249.4 57.2C248.5 58.1 248 59.3 248 60.5V125.4C248 128 250.1 130 252.6 130C255.2 130 257.2 127.9 257.2 125.4V71.7L277.1 91.6C278 92.5 279.2 93 280.4 93C281.6 93 282.8 92.5 283.7 91.6L303.6 71.7V125.4C303.6 128 305.7 130 308.2 130C310.8 130 312.8 127.9 312.8 125.4V60.5C312.8 59.3 312.3 58.1 311.4 57.2C309.8 55.4 306.9 55.4 305.1 57.2Z" fill="white"/>
<path d="M599.3 57.2C597.5 55.4 594.6 55.4 592.7 57.2L568.1 81.8L543.5 57.2C541.7 55.4 538.8 55.4 536.9 57.2C535.1 59 535.1 61.9 536.9 63.8L563.4 90.2999V125.5C563.4 128.1 565.5 130.1 568 130.1C570.6 130.1 572.6 128 572.6 125.5V90.2999L599.1 63.8C601.1 61.9 601.1 59 599.3 57.2Z" fill="white"/>
<path d="M521.8 88.3H475.4C472.8 88.3 470.8 90.4 470.8 92.9C470.8 95.5 472.9 97.5 475.4 97.5H521.8C524.4 97.5 526.4 95.4 526.4 92.9C526.4 90.4 524.3 88.3 521.8 88.3ZM521.8 120.8H475.4C472.8 120.8 470.8 122.9 470.8 125.4C470.8 128 472.9 130 475.4 130H521.8C524.4 130 526.4 127.9 526.4 125.4C526.4 122.9 524.3 120.8 521.8 120.8ZM475.4 65.1H521.8C524.4 65.1 526.4 63 526.4 60.5C526.4 57.9 524.3 55.9 521.8 55.9H475.4C472.8 55.9 470.8 58 470.8 60.5C470.7 63 472.8 65.1 475.4 65.1Z" fill="white"/>
<path d="M410.4 55.8C407.8 55.8 405.8 57.9 405.8 60.4V125.3C405.8 127.9 407.9 129.9 410.4 129.9C413 129.9 415 127.8 415 125.3V60.4C415.1 57.9 413 55.8 410.4 55.8ZM460.1 122.1L430.9 92.9L460.1 63.7C461.9 61.9 461.9 59 460.1 57.1C458.3 55.3 455.4 55.3 453.5 57.1L417.7 92.9L453.4 128.6C454.2 129.4 455.4 130 456.7 130C459.3 130 461.3 127.9 461.3 125.4C461.5 124.1 460.9 123 460.1 122.1Z" fill="white"/>
<path d="M424.354 86.3668L417.778 92.9429L424.354 99.5189L430.93 92.9429L424.354 86.3668Z" fill="white"/>
<path d="M155.3 0.199951C146.8 0.199951 139 3.69996 133.4 9.29996L49.7 93L93.4 136.7L177.1 53C182.7 47.4 186.2 39.7 186.2 31.1C186.2 14 172.4 0.199951 155.3 0.199951Z" fill="white"/>
<path d="M155.3 185.7C146.8 185.7 139 182.2 133.4 176.6L49.7 92.8999L93.4 49.2L177.1 132.9C182.7 138.5 186.2 146.2 186.2 154.8C186.2 171.9 172.4 185.7 155.3 185.7Z" fill="white"/>
<path d="M93.4416 49.1685L49.6721 92.938L93.4416 136.707L137.211 92.938L93.4416 49.1685Z" fill="white"/>
<path d="M62.5 31.1C62.5 48.2 48.6999 62 31.5999 62C14.4999 62 0.699951 48.2 0.699951 31.1C0.699951 14 14.4999 0.199951 31.5999 0.199951C48.5999 0.199951 62.5 14 62.5 31.1Z" fill="white"/>
<path d="M186.2 31.1C186.2 48.2 172.4 62 155.3 62C138.2 62 124.4 48.2 124.4 31.1C124.4 14 138.2 0.199951 155.3 0.199951C172.4 0.199951 186.2 14 186.2 31.1Z" fill="white"/>
<path d="M62.5 154.8C62.5 171.9 48.6999 185.7 31.5999 185.7C14.4999 185.7 0.699951 171.9 0.699951 154.8C0.699951 137.7 14.4999 123.9 31.5999 123.9C48.5999 123.9 62.5 137.7 62.5 154.8Z" fill="white"/>
</svg>

<svg xmlns="http://www.w3.org/2000/svg" width="601" height="186" fill="#000"><path d="M379.3 57.2l-24.6 24.6-24.6-24.6c-1.8-1.8-4.7-1.8-6.6 0-1.8 1.8-1.8 4.7 0 6.6L350 90.3v35.2c0 2.6 2.1 4.6 4.6 4.6 2.6 0 4.6-2.1 4.6-4.6V90.3l26.5-26.5c1.8-1.8 1.8-4.7 0-6.6-1.6-1.8-4.6-1.8-6.4 0zm-74.2 0l-24.6 24.6L256 57.2c-1.8-1.8-4.7-1.8-6.6 0-.9.9-1.4 2.1-1.4 3.3v64.9c0 2.6 2.1 4.6 4.6 4.6 2.6 0 4.6-2.1 4.6-4.6V71.7l19.9 19.9c.9.9 2.1 1.4 3.3 1.4s2.4-.5 3.3-1.4l19.9-19.9v53.7c0 2.6 2.1 4.6 4.6 4.6 2.6 0 4.6-2.1 4.6-4.6V60.5c0-1.2-.5-2.4-1.4-3.3-1.6-1.8-4.5-1.8-6.3 0zm294.2 0c-1.8-1.8-4.7-1.8-6.6 0l-24.6 24.6-24.6-24.6c-1.8-1.8-4.7-1.8-6.6 0-1.8 1.8-1.8 4.7 0 6.6l26.5 26.5v35.2c0 2.6 2.1 4.6 4.6 4.6 2.6 0 4.6-2.1 4.6-4.6V90.3l26.5-26.5c2-1.9 2-4.8.2-6.6zm-77.5 31.1h-46.4c-2.6 0-4.6 2.1-4.6 4.6 0 2.6 2.1 4.6 4.6 4.6h46.4c2.6 0 4.6-2.1 4.6-4.6s-2.1-4.6-4.6-4.6zm0 32.5h-46.4c-2.6 0-4.6 2.1-4.6 4.6 0 2.6 2.1 4.6 4.6 4.6h46.4c2.6 0 4.6-2.1 4.6-4.6s-2.1-4.6-4.6-4.6zm-46.4-55.7h46.4c2.6 0 4.6-2.1 4.6-4.6 0-2.6-2.1-4.6-4.6-4.6h-46.4c-2.6 0-4.6 2.1-4.6 4.6-.1 2.5 2 4.6 4.6 4.6zm-65-9.3c-2.6 0-4.6 2.1-4.6 4.6v64.9c0 2.6 2.1 4.6 4.6 4.6 2.6 0 4.6-2.1 4.6-4.6V60.4c.1-2.5-2-4.6-4.6-4.6zm49.7 66.3l-29.2-29.2 29.2-29.2c1.8-1.8 1.8-4.7 0-6.6-1.8-1.8-4.7-1.8-6.6 0l-35.8 35.8 35.7 35.7c.8.8 2 1.4 3.3 1.4 2.6 0 4.6-2.1 4.6-4.6.2-1.3-.4-2.4-1.2-3.3z"/><path d="M424.354 86.367l-6.576 6.576 6.576 6.576 6.576-6.576-6.576-6.576zM155.3.2c-8.5 0-16.3 3.5-21.9 9.1L49.7 93l43.7 43.7L177.1 53c5.6-5.6 9.1-13.3 9.1-21.9A30.86 30.86 0 0 0 155.3.2z"/><path d="M155.3 185.7c-8.5 0-16.3-3.5-21.9-9.1L49.7 92.9l43.7-43.7 83.7 83.7c5.6 5.6 9.1 13.3 9.1 21.9a30.86 30.86 0 0 1-30.9 30.9z"/><path d="M93.442 49.169l-43.769 43.77 43.769 43.769 43.769-43.769L93.442 49.17zM62.5 31.1A30.86 30.86 0 0 1 31.6 62 30.86 30.86 0 0 1 .7 31.1 30.86 30.86 0 0 1 31.6.2c17 0 30.9 13.8 30.9 30.9zm123.7 0a30.9 30.9 0 1 1-61.8 0 30.9 30.9 0 1 1 61.8 0zM62.5 154.8a30.86 30.86 0 0 1-30.9 30.9 30.9 30.9 0 1 1 0-61.8c17 0 30.9 13.8 30.9 30.9z"/></svg>
